src/lib/images/icons/youtube.svg

<svg viewBox="0 0 43 30" fill="none" xmlns="http://www.w3.org/2000/svg">
<path d="M41.0105 2.57529C39.4718 0.746129 36.6308 0 31.2052 0H11.5104C5.96059 0 3.0715 0.794258 1.53854 2.74167C0.0439453 4.64041 0.0439453 7.43805 0.0439453 11.3101V18.6901C0.0439453 26.1914 1.81727 30 11.5104 30H31.2054C35.9104 30 38.5176 29.3416 40.2043 27.7274C41.934 26.072 42.672 23.3693 42.672 18.6901V11.3101C42.672 7.2267 42.5564 4.41256 41.0105 2.57529ZM27.4113 16.0189L18.4679 20.693C18.268 20.7976 18.0494 20.8494 17.831 20.8494C17.5838 20.8494 17.3371 20.7828 17.1186 20.6506C16.7071 20.4013 16.4559 19.9553 16.4559 19.4743V10.1561C16.4559 9.67589 16.7064 9.23036 17.117 8.98091C17.5278 8.73147 18.0386 8.71442 18.4648 8.93581L27.4082 13.5798C27.8632 13.816 28.1489 14.2858 28.1496 14.7983C28.1502 15.3112 27.8656 15.7816 27.4113 16.0189Z" fill="#fff"/>
</svg>

<svg viewBox="0 0 43 30" fill="none" xmlns="http://www.w3.org/2000/svg"><path d="M41.01 2.575C39.473.746 36.63 0 31.206 0H11.51C5.96 0 3.072.794 1.54 2.742.044 4.64.044 7.438.044 11.31v7.38C.044 26.191 1.817 30 11.51 30h19.695c4.705 0 7.313-.658 9-2.273 1.729-1.655 2.467-4.358 2.467-9.037v-7.38c0-4.083-.116-6.897-1.661-8.735zM27.412 16.02l-8.943 4.674a1.372 1.372 0 0 1-1.35-.042 1.375 1.375 0 0 1-.662-1.177v-9.318a1.375 1.375 0 0 1 2.009-1.22l8.943 4.644a1.375 1.375 0 0 1 .003 2.439z" fill="#fff"/></svg>
